build/img/union.svg

<svg width="12" height="17" viewBox="0 0 12 17" fill="none" xmlns="http://www.w3.org/2000/svg">
<path fill-rule="evenodd" clip-rule="evenodd" d="M10.0007 7.99999H11C11.5523 7.99999 12 8.44771 12 8.99999L12 15C12 16.1046 11.1046 17 10 17H2C0.89543 17 0 16.1046 0 15L0 8.99999C0 8.44771 0.447716 7.99999 1 7.99999H2.00174L2.00119 4.00049C2.00089 1.79119 3.79186 6.56666e-05 6.00116 0.000183111C8.21008 0.000299643 10.0007 1.79102 10.0007 3.99994L10.0007 7.99999ZM9.00071 8L9.00071 3.99994C9.00071 2.34328 7.65777 1.00027 6.00111 1.00018C4.34416 1.00009 3.00096 2.34341 3.00119 4.00035L3.00174 7.99999L9.00071 8Z" fill="#94A0B1"/>
</svg>

<svg width="12" height="17" viewBox="0 0 12 17" fill="none" xmlns="http://www.w3.org/2000/svg"><path fill-rule="evenodd" clip-rule="evenodd" d="M10 8h1a1 1 0 011 1v6a2 2 0 01-2 2H2a2 2 0 01-2-2V9a1 1 0 011-1h1.002V4A4 4 0 1110 4v4zM9 8V4a3 3 0 10-5.999 0v4h6z" fill="#94A0B1"/></svg>
